modules/themify-icons/icons/files.svg

<?xml version="1.0" encoding="utf-8"?>
<!-- Generated by IcoMoon.io -->
<!DOCTYPE svg PUBLIC "-//W3C//DTD SVG 1.1//EN" "http://www.w3.org/Graphics/SVG/1.1/DTD/svg11.dtd">
<svg version="1.1" xmlns="http://www.w3.org/2000/svg" xmlns:xlink="http://www.w3.org/1999/xlink" width="17" height="17" viewBox="0 0 17 17">
<g>
</g>
	<path d="M12.497 0h-6.497v2.010h1v-1.010h5v4h4v8h-4.017v1h5.017v-9.818l-4.503-4.182zM13 1.832l2.335 2.168h-2.335v-2.168zM0 3v14h11v-9.818l-4.503-4.182h-6.497zM7 4.832l2.335 2.168h-2.335v-2.168zM1 16v-12h5v4h4v8h-9z" fill="#000000" />
</svg>

<svg xmlns="http://www.w3.org/2000/svg" width="17" height="17" viewBox="0 0 17 17"><path d="M12.497 0H6v2.01h1V1h5v4h4v8h-4.017v1H17V4.182L12.497 0zM13 1.832L15.335 4H13V1.832zM0 3v14h11V7.182L6.497 3H0zm7 1.832L9.335 7H7V4.832zM1 16V4h5v4h4v8H1z"/></svg>
